svg/file_document_arrow_right_outline.svg

<svg xmlns="http://www.w3.org/2000/svg" viewBox="0 0 24 24"><path d="m23 19-3-3v2h-4v2h4v2zm-9.2 3H6c-1.1 0-2-.9-2-2V4c0-1.1.9-2 2-2h8l6 6v5.1c-.3-.1-.7-.1-1-.1s-.7 0-1 .1V9h-5V4H6v16h7.1c.1.7.4 1.4.7 2M8 12h8v1.8c-.1.1-.2.1-.3.2H8zm0 4h5v2H8z"/></svg>

<svg xmlns="http://www.w3.org/2000/svg" id="mdi-file-document-arrow-right-outline" viewBox="0 0 24 24"><path d="M23 19L20 16V18H16V20H20V22L23 19M13.8 22H6C4.9 22 4 21.1 4 20V4C4 2.9 4.9 2 6 2H14L20 8V13.1C19.7 13 19.3 13 19 13S18.3 13 18 13.1V9H13V4H6V20H13.1C13.2 20.7 13.5 21.4 13.8 22M8 12H16V13.8C15.9 13.9 15.8 13.9 15.7 14H8V12M8 16H13V18H8V16Z" /></svg>
